X:1
T: Cos Eritla's Reel
C:Bruce Shawyer
R:Reel
Q:232
K:A
M:4/4
L:1/16
c4|:"A"e4A4A4A2B2|c4A4A8|"E"E2F2G2A2 B2c2d2e2|B4G4G4c2d2|
"A"e4A4A4c2B2|c4A4A8|"E"E2F2G2A2 B2c2d2e2|"A"c4A4A4c2d2:|
|:"A"c4A4A4B2A2|"E"B4G4G8|"D"F2E2D2C2 "E"G2F2E2D2|"A"C4A4A4c2B2|
"A"c4A4A4B2A2|"E"B4G4G8|"D"F2E2D2F2 "E"G2F2E2G2|1"A"A8 A4c2B2:|2"A"A8A4||
